X:1545
T:Durham Rangers
A:Northumberland
M:4/4
O:England
O:Scotland
R:Reel
R:Hornpipe
Z:Richard Robinson 
%%TUNEURL: http://www.leeds.ac.uk/music/Info/RRTuneBk/gettune/0000080b.html
%%ID:0000080b
K:D
FG|\
ABAF A2de|fgfe d3A|BcdB ABAF|G2E2 E2FG|\
ABAF A2de|fgef d2dA|
BcdB ABAG|F2D2 D2::\
ag|\
fefg afdf|edcB Adfa|
g2bg f2af|g2e2 e2FG|\
ABAF A2de|fgef d2A2|BcdB ABAG F2D2 D2:|
